X:41
T:Footworks
R:reel
C:Jerry Holland, SOCAN
A:www.jerryholland.com
Q:333
L:1/8
M:C|
K:G
dc|:BG G/G/G AGEG|DEGB AGAB|cA A/A/A BAGA|EGAB cedA|!
BG G/G/G AGEG|DEGB AGAB|cBcd efge|1fdcA BGGc:|2fdcA BGG||!
|:B|dg g/g/g afgd|efge GABG|Aa a/a/a bgad|eaag efge|!
dg g/g/g afgd|efge GABG|cdec BcdB|FGAc BGG:|!
